X:13
T: Fair Jenny's
R: jig
M: 6/8
L: 1/8
K: Dmaj
|:"D"~f3 fgf | "A"ecA ecA | "G"Bcd "A"ecA | "G"Bcd "A"e2g |
  "D"~f3 fef | "A"ecA ecA | "G"Bcd "A"ecA | ABc "D"d2A :|
|:"G"B3 B=cB | GBB B=cB | "D"ADD dDD | cDD "D7"=cDD|
  "G"B3 B=cB | GBB B=cB | "A"ABA ABc | "D"dAF D3 :|

